X:941
T:Ayer vite na fonte (CT 114)
R:Tonada
C:Tradicional
S:Música Tradicional Asturiana, (C) Tello & Tito. Asturies, 2001.
S:http://pagina.de/MusTradAst <telloytito@asturies.org>
N:Canción de empleo indeterminado, transcrita en Uviéu.
N:Las tres primeras cuartetas se cantan con lamitad de la frase melódica.
N:Variante de la número CT 113.
O:Uviéu
A:Asturies
Z:Cancioneru de Torner 114
M:3/8
L:1/8
Q:3/8=83
W:Ayer vite na fonte,
W:tabes cantando,
W:y hoi que pasé per ella
W:tabes llorando.
W:Dime porqué tas triste
W:y descolorida,
W:dime por qué sospires,
W:prenda querida.
W:
W:Sospiro por amores
W:que yo tenía,
W:sospiro por amores
W:que yo quería.
W:Amores que tuvisti
W:sigues teniendo;
W:ya sabes que te quisi
W:y toi queriendo.
W:
W:Si tantu me quisisti
W:y tas queriendo,
W:¿Porqué nun vas veme
W:cuandu t'espero?
K:Gm
|G2 B|ddd|edc-|cee|(f>e)d-|d2 z|
G2 B|ddd|edc-|cBA|(B>A)G-|G2 z|
G2 A|BBB|cBA-|ABc|d d2-|d2 z|
G2 B|ddd|edc-|cBA|(B>A)G-|G2 z :||


